X:1
T:Ne permetz plus
T:Jean de Castro
T:Source : La fleur des chansons à 3---Louvain---P.Phalèse---1574. Editor : André Vierendeels (12/08/18) Notes : Original clefs : C1, C3, C4 Original note values have been halved Editorial accidentals above the staff 
T:Ne permetz plus
T:©
T:©
T:©
T:©
C:Jean de Castro
Z:©
%%score [ 1 2 3 ]
L:1/8
Q:1/4=120
M:2/2
K:F
V:1 treble nm="Soprano" snm="S"
V:2 treble nm="Alto" snm="A"
V:3 treble-8 nm="Tenor" snm="T"
V:1
 B4 A2 G2 | d2 d2 c2 B2 | A4 A3 A | G8 | c3 c B4- | B2 A2 z2 A2 | AAAA G2 F2 | GG D2 z B A2 | %8
w: Ne per- metz|plus, ne per- metz|plus, hum- ble-|ment|ie te pri-|* e, que|cest- a- mour, lu- bric- qu'et|im- pu- dent, cest a-|
 d c2 c ddA>B | ccG>A BBF>G | A2 z A BcdG | d2 c2 B2 G2 | A4 z2 c2 | B2 G2 z ddB | AG A2 =B2 B2 | %15
w: mour, lu- bri- qu'et _ im- pu-|dent me fa- ce choir, me fa- ce|choir en sem- bla- ble'ac- ci-|dent que i'ay es-|té, non|sans grand, non sans grand|res- ve- ri- e, ot-|
 c2 c2 d4 | z2 c2 A2 A2 | B2 B4 A2 | A4 z2 A2- | A2 G4 F2- | F2 c4 B2- | B2 A3 GFE | D2 D2 E2 F2- | %23
w: troy- ez moy,|ot- troy- ez|moy seu- le-|ment, O|_ mon Dieu,|_ O mon|_ Dieu, _ _ _|_ que dans mon|
 F2 G4 A2- | AA d2 G2 B2 | ABAG A G3/2^F/4E/4F | G8 |] %27
w: _ cueur ton|_ a- mour pren- ne|lieu, ton a- mour pren- ne _ _ _|lieu.|
V:2
 z2 G2 F2 E2 | D2 D2 E2 G2 | F2 F4 E2 | D2 E3 F G2- | G2 ^F2 z GGG | GG F2 F2 z D | E F2 E2 D C2- | %7
w: Ne per- metz|plus, ne per- metz|plus, hum- ble-|ment ie te pri-|* e, que cest a-|mour, lu- bric- que, que|cest a- mour lu- bric-|
 CD z G, D>EFF | DFE>E D4 | z AE>F GGD>E | FFC>C GEDE | FG A2 G F2 E | F2 F2 E2 C2 | %13
w: * que, lu- bric- qu'et im- pu-|dent, et im- pu- dent,|me fa- ce choir, me fa- ce|choir, me fa- ce choir en sem- bla-|ble'ac- ci- dent que i'ay es-|té, non sans grand,|
 z G E2 D2 z G | ^FGF>F G2 DD | E2 F4 G2- | G2 A2 ^F2 F2 | G2 G4 F2 | F6 F2 | E4 D4 | A4 G4 | %21
w: non sans grand, non|sans grand res- ve- ri- e, ot-|troy- ez moy,|_ ot- troy- ez|moy seu- le-|ment, O|mon Dieu,|O mon|
 F2 F2 D4 | B,2 z G, G2 C2 | D4 E3 E | F4 E2 G2 | FDD=B, C2 A,2 | =B,8 |] %27
w: Dieu, O mon|Dieu, que dans mon|cueur, ton a-|mour pren- ne|lieu, ton a- mour pren- ne|lieu.|
V:3
 z8 | B4 A2 G2 | d2 d4 c2 |"^b" =B2 c4 B2 | A4 G4 | z2 d2 dddd |"^-natural" ^c d2 c2 B A2 | %7
w: |Ne per- metz|plus, hum- ble-|ment ie te|pri- e,|que cest a- mour lu-|bric- qu'et im- pu- dent,|
 z GGG GG F2 | B A2 A D2 z d | A>Bcc G>ABB | F>G A2 z ABc | defF B2 c2 | F4 z4 | z2 c2 B2 G2 | %14
w: lu- bric- qu'et im- pu- dent,|et im- pu- dent, ma|fa- ce choir, me fa- ce choir, me|fa- ce choir en sem- bla-|ble'ac- ci- dent que i'ay es-|té,|non sans grand|
 de d2 G4 | z4 B4 | c2 c2 d4 | G6 D2 |"^-natural" d6 d2 | c4 B4 | f4 _e4 | d4 z2 D2 | G6 A2 | %23
w: res- ve- ri- e,|ot|troy- ez moy|seu- le-|ment, O|mon Dieu,|O mon|Dieu, que|dans mon|
 B4 c3 c | d4 c2 G2 | dG^FG C2 D2 | G8 |] %27
w: cueur, ton a-|mour pren- ne|lieu, ton a- mour pren- ne|lieu.|

